icons/npm.svg

<svg height="977" preserveAspectRatio="xMinYMin meet" viewBox="0 0 256 100" width="2500" xmlns="http://www.w3.org/2000/svg"><path d="m0 0v85.498h71.166v14.332h56.834v-14.332h128v-85.498z" fill="#cb3837"/><path d="m42.502 14.332h-28.17v56.834h28.17v-42.502h14.332v42.502h14.332v-56.834zm42.996 0v71.166h28.664v-14.332h28.17v-56.834zm42.502 42.502h-13.838v-28.17h13.838zm56.834-42.502h-28.17v56.834h28.17v-42.502h14.332v42.502h14.332v-42.502h14.332v42.502h14.332v-56.834z" fill="#fff"/></svg>

<svg width="2500" height="977" viewBox="0 0 256 100" xmlns="http://www.w3.org/2000/svg" preserveAspectRatio="xMinYMin meet"><path d="M0 0v85.498h71.166V99.83H128V85.498h128V0H0z" fill="#CB3837"/><path d="M42.502 14.332h-28.17v56.834h28.17V28.664h14.332v42.502h14.332V14.332H42.502zM85.498 14.332v71.166h28.664V71.166h28.17V14.332H85.498zM128 56.834h-13.838v-28.17H128v28.17zM184.834 14.332h-28.17v56.834h28.17V28.664h14.332v42.502h14.332V28.664h14.332v42.502h14.332V14.332h-57.328z" fill="#FFF"/></svg>
